X: 1
T: O Gin I Were Where Gadie Rins
R: march
Z: 2009 John Chambers <jc:trillian.mit.edu>
S: printed MS from Sylvia Miskoe
M: 2/4
L: 1/16
K: C
A2 \
| "C"G2GA c2cd | e2e2 e2dc | e2e2 e2dc | "G7"d2de dcBA \
| "C"G2GA c2cd | e2e2 e2dc | "G7"g2G2 G2AB | "C"c6 :|
|: A2 \
| "C"G2E2 E2G2 | "G7"F2D2 D2GF | "C"E2C2 E2G2 | cBce "G7"dcBA \
| "C"G2E2 E2G2 | "G7"F2D2 D2GF | "C"E2C2 E2G2 | "C"[c6E6] :|
